icons/svg/poi_colored/mine.svg

<?xml version="1.0" encoding="UTF-8" standalone="no"?>
<!-- Created with Inkscape (http://www.inkscape.org/) -->

<svg
   xmlns:dc="http://purl.org/dc/elements/1.1/"
   xmlns:cc="http://creativecommons.org/ns#"
   xmlns:rdf="http://www.w3.org/1999/02/22-rdf-syntax-ns#"
   xmlns:svg="http://www.w3.org/2000/svg"
   xmlns="http://www.w3.org/2000/svg"
   xmlns:sodipodi="http://sodipodi.sourceforge.net/DTD/sodipodi-0.dtd"
   xmlns:inkscape="http://www.inkscape.org/namespaces/inkscape"
   version="1.0"
   width="580"
   height="580"
   id="svg2"
   sodipodi:version="0.32"
   inkscape:version="0.47 r22583"
   sodipodi:docname="poi_mine.svg"
   inkscape:output_extension="org.inkscape.output.svg.inkscape">
  <metadata
     id="metadata10">
    <rdf:RDF>
      <cc:Work
         rdf:about="">
        <dc:format>image/svg+xml</dc:format>
        <dc:type
           rdf:resource="http://purl.org/dc/dcmitype/StillImage" />
        <cc:license
           rdf:resource="http://web.resource.org/cc/PublicDomain" />
        <dc:language>en</dc:language>
      </cc:Work>
    </rdf:RDF>
  </metadata>
  <sodipodi:namedview
     inkscape:window-height="1003"
     inkscape:window-width="1400"
     inkscape:pageshadow="2"
     inkscape:pageopacity="0.0"
     guidetolerance="10.0"
     gridtolerance="10.0"
     objecttolerance="10.0"
     borderopacity="1.0"
     bordercolor="#666666"
     pagecolor="#ffffff"
     id="base"
     showgrid="false"
     inkscape:zoom="0.35355339"
     inkscape:cx="857.75093"
     inkscape:cy="-34.972495"
     inkscape:window-x="0"
     inkscape:window-y="20"
     inkscape:current-layer="svg2"
     showguides="true"
     inkscape:guide-bbox="true"
     inkscape:window-maximized="0" />
  <defs
     id="defs4">
    <inkscape:perspective
       sodipodi:type="inkscape:persp3d"
       inkscape:vp_x="0 : 290 : 1"
       inkscape:vp_y="0 : 1000 : 0"
       inkscape:vp_z="580 : 290 : 1"
       inkscape:persp3d-origin="290 : 193.33333 : 1"
       id="perspective12" />
    <style
       type="text/css"
       id="style6">
   
    .fil0 {fill:#EF7900}
   
  </style>
    <inkscape:perspective
       id="perspective6807"
       inkscape:persp3d-origin="29.116032 : 19.410688 : 1"
       inkscape:vp_z="58.232063 : 29.116032 : 1"
       inkscape:vp_y="0 : 1000 : 0"
       inkscape:vp_x="0 : 29.116032 : 1"
       sodipodi:type="inkscape:persp3d" />
    <inkscape:perspective
       id="perspective6954"
       inkscape:persp3d-origin="290 : 193.33333 : 1"
       inkscape:vp_z="580 : 290 : 1"
       inkscape:vp_y="0 : 1000 : 0"
       inkscape:vp_x="0 : 290 : 1"
       sodipodi:type="inkscape:persp3d" />
    <inkscape:perspective
       id="perspective2541"
       inkscape:persp3d-origin="240 : 160 : 1"
       inkscape:vp_z="480 : 240 : 1"
       inkscape:vp_y="0 : 1000 : 0"
       inkscape:vp_x="0 : 240 : 1"
       sodipodi:type="inkscape:persp3d" />
    <inkscape:perspective
       id="perspective2750"
       inkscape:persp3d-origin="215 : 143.33333 : 1"
       inkscape:vp_z="430 : 215 : 1"
       inkscape:vp_y="0 : 1000 : 0"
       inkscape:vp_x="0 : 215 : 1"
       sodipodi:type="inkscape:persp3d" />
  </defs>
  <g
     id="g1327">
    <path
       d="M 66.275,1.768 C 24.94,1.768 1.704,23.139 1.704,66.804 L 1.704,516.927 C 1.704,557.771 22.598,579.156 63.896,579.156 L 515.92,579.156 C 557.227,579.156 578.149,558.84 578.149,516.927 L 578.149,66.804 C 578.149,24.203 557.227,1.768 514.627,1.768 C 514.624,1.768 66.133,1.625 66.275,1.768 z"
       style="fill:#111111;stroke:#eeeeee;stroke-width:3.40799999"
       id="path1329" />
  </g>
  <path
     style="fill:#ffffff;fill-opacity:1;stroke:#ffffff;stroke-width:20;stroke-linecap:round;stroke-linejoin:round;stroke-miterlimit:4;stroke-opacity:1;stroke-dasharray:none"
     d="m 383.0006,74.923386 -51.59375,45.218754 69.75,68.90625 c -26.00031,28.21406 -52.18068,56.30284 -78.40625,84.34375 5.98428,5.5813 11.95942,11.16203 17.9375,16.75 25.56765,-28.76064 51.2008,-57.48026 76.96875,-86.03125 5.37477,-3.82844 35.90895,25.48403 39.59375,31 l 84.59375,44.59375 c -4.65595,-3.3278 -42.77338,-96.00629 -48.78125,-101.25 -9.2805,-8.13542 -20.12557,-17.80484 -31.4375,-28.03125 l 17.90625,-17.4375 -13.78125,-11.65625 -17.375,17.0625 C 423.96414,116.02327 399.02975,92.259825 383.0006,74.923386 z M 247.8756,353.45464 c -4.23864,4.54392 -8.48517,9.07713 -12.71875,13.625 l -123.25,131.84375 23.78125,21.6875 119.96875,-134.84375 c 3.9575,-4.42956 7.89057,-8.87862 11.84375,-13.3125 -6.54263,-6.33242 -13.07618,-12.67399 -19.625,-19 z"
     id="path3604" />
  <path
     style="fill:#ffffff;fill-opacity:1;stroke:#ffffff;stroke-width:20;stroke-linecap:round;stroke-linejoin:round;stroke-miterlimit:4;stroke-opacity:1;stroke-dasharray:none"
     d="m 116.00938,151.66297 c -28.453063,28.86372 -47.564096,65.66715 -71.445755,98.36769 l 52.823261,38.52823 57.166044,-82.38903 c 6.86902,-3.61196 11.3378,5.27847 15.48932,9.24597 57.58348,57.0998 114.49748,115.01013 171.82143,172.42793 l 127.25143,127.98816 22.54488,-22.9731 -130.35955,-124.821 c -58.48609,-56.23357 -117.45692,-112.048 -175.62998,-168.54704 -4.04492,-4.07614 -13.01784,-8.37688 -9.53573,-15.31264 L 257.43368,125.47218 217.91846,73.383119 C 182.67994,98.090836 146.85375,121.44432 116.00938,151.66297 z"
     id="path3621"
     sodipodi:nodetypes="cccccccccccccc" />
</svg>

<svg width="580" height="580" viewBox="0 0 580 580" fill="none" xmlns="http://www.w3.org/2000/svg">
<g clip-path="url(#clip0)">
<path d="M66.275 1.7679C24.94 1.7679 1.70398 23.1389 1.70398 66.8039V516.927C1.70398 557.771 22.598 579.156 63.896 579.156H515.92C557.227 579.156 578.149 558.84 578.149 516.927V66.8039C578.149 24.2029 557.227 1.7679 514.627 1.7679C514.624 1.7679 66.133 1.6249 66.275 1.7679Z" fill="#111111" stroke="#EEEEEE" stroke-width="3.408"/>
<path d="M383.001 74.9233L331.407 120.142L401.157 189.048C375.157 217.262 348.976 245.351 322.751 273.392C328.735 278.973 334.71 284.554 340.688 290.142C366.256 261.381 391.889 232.662 417.657 204.111C423.032 200.282 453.566 229.595 457.251 235.111L541.844 279.705C537.188 276.377 499.071 183.698 493.063 178.455C483.783 170.319 472.938 160.65 461.626 150.423L479.532 132.986L465.751 121.33L448.376 138.392C423.964 116.023 399.03 92.2598 383.001 74.9233ZM247.876 353.455C243.637 357.999 239.39 362.532 235.157 367.08L111.907 498.923L135.688 520.611L255.657 385.767C259.614 381.338 263.547 376.888 267.501 372.455C260.958 366.122 254.424 359.781 247.876 353.455V353.455Z" fill="white" stroke="white" stroke-width="20" stroke-linecap="round" stroke-linejoin="round"/>
<path d="M116.009 151.663C87.5563 180.527 68.4453 217.33 44.5636 250.031L97.3869 288.559L154.553 206.17C161.422 202.558 165.891 211.448 170.042 215.416C227.626 272.516 284.54 330.426 341.864 387.844L469.115 515.832L491.66 492.859L361.3 368.038C302.814 311.804 243.843 255.99 185.67 199.491C181.626 195.415 172.653 191.114 176.135 184.178L257.434 125.472L217.918 73.3831C182.68 98.0908 146.854 121.444 116.009 151.663Z" fill="white" stroke="white" stroke-width="20" stroke-linecap="round" stroke-linejoin="round"/>
</g>
<defs>
<clipPath id="clip0">
<path d="M0 0H580V580H0V0Z" fill="white"/>
</clipPath>
</defs>
</svg>
